public/icons/information-circle-outline-lg.svg

<svg xmlns="http://www.w3.org/2000/svg" width="72" height="72" fill="none" viewBox="0 0 72 72">
  <path stroke="currentColor" stroke-miterlimit="10" d="M36 6c16.568 0 30 13.432 30 30 0 16.568-13.432 30-30 30C19.432 66 6 52.568 6 36 6 19.4221 19.432 6 36 6Z"/>
  <path fill="currentColor" fill-rule="evenodd" d="M36 24c1.1046 0 2-.8954 2-2s-.8954-2-2-2-2 .8954-2 2 .8954 2 2 2Zm0 6c-.5523 0-1 .4477-1 1v20c0 .5523.4477 1 1 1s1-.4477 1-1V31c0-.5523-.4477-1-1-1Z" clip-rule="evenodd"/>
</svg>

<svg role="img" width="72" height="72" viewBox="0 0 72 72" fill="none" xmlns="http://www.w3.org/2000/svg">

<path d="M36 4C53.6726 4 68 18.3274 68 36C68 53.6726 53.6726 68 36 68C18.3274 68 4 53.6726 4 36C4 18.3169 18.3274 4 36 4Z" stroke="currentColor" stroke-miterlimit="10"/>
<path fill-rule="evenodd" clip-rule="evenodd" d="M36 24C37.1046 24 38 23.1046 38 22C38 20.8954 37.1046 20 36 20C34.8954 20 34 20.8954 34 22C34 23.1046 34.8954 24 36 24ZM36 30C35.4477 30 35 30.4477 35 31V51C35 51.5523 35.4477 52 36 52C36.5523 52 37 51.5523 37 51V31C37 30.4477 36.5523 30 36 30Z" fill="currentColor"/>


</svg>
